src/icons/outline/symbols/hours-increase.svg

<svg width="24" height="24" viewBox="0 0 24 24" fill="none" xmlns="http://www.w3.org/2000/svg">
<g clip-path="url(#clip0_6589_955)">
<path d="M10.9004 3.2002C11.3715 3.20021 11.8355 3.23332 12.2891 3.29688C12.74 3.36036 13.0178 3.8058 12.917 4.25C12.8159 4.69388 12.3747 4.96754 11.9229 4.91211C11.5885 4.87095 11.247 4.84963 10.9004 4.84961C6.34417 4.84961 2.6506 8.54344 2.65039 13.0996C2.65039 17.656 6.34404 21.3496 10.9004 21.3496C15.4566 21.3494 19.1504 17.6558 19.1504 13.0996C19.1504 12.753 19.1291 12.4115 19.0879 12.0771C19.0324 11.6251 19.3068 11.1838 19.751 11.083C20.1951 10.9825 20.6397 11.2601 20.7031 11.7109C20.7667 12.1645 20.7998 12.6285 20.7998 13.0996C20.7998 18.5671 16.3678 22.9998 10.9004 23C5.43277 23 1 18.5672 1 13.0996C1.00021 7.63217 5.4329 3.2002 10.9004 3.2002Z" fill="#3C3B44"/>
<path d="M10.9004 8.20703C11.2608 8.20731 11.5594 8.50673 11.5596 8.86719V12.8271L15.4932 16.7607C15.7481 17.016 15.7483 17.4383 15.4932 17.6934C15.3613 17.8252 15.1944 17.8876 15.0273 17.8877C14.8603 17.8877 14.6925 17.8251 14.5605 17.6934L10.4336 13.5664C10.3772 13.51 10.3332 13.4451 10.3018 13.376C10.2623 13.2918 10.2403 13.1977 10.2402 13.0996V8.86719C10.2404 8.50656 10.5397 8.20703 10.9004 8.20703Z" fill="#3C3B44"/>
<path d="M18.499 1C18.7389 1.00003 18.9702 1.09575 19.1406 1.26562C19.3104 1.43539 19.4072 1.66873 19.4072 1.91016V4.59277H22.0693L22.2803 4.61328C22.4506 4.64978 22.61 4.73505 22.7344 4.85938C22.9043 5.02978 23 5.26108 23 5.50098C22.9998 5.7103 22.9263 5.91254 22.7939 6.07422L22.7344 6.14062C22.5646 6.31036 22.3313 6.40723 22.0898 6.40723H19.4072V9.08984C19.4072 9.33117 19.3103 9.56458 19.1406 9.73438C18.9702 9.90428 18.739 9.99997 18.499 10C18.2598 9.99977 18.0299 9.90436 17.8594 9.73438C17.6896 9.56461 17.5928 9.33127 17.5928 9.08984V6.40723H14.9102C14.6687 6.40723 14.4354 6.31036 14.2656 6.14062C14.0956 5.97011 14.0002 5.74017 14 5.50098C14 5.26099 14.0957 5.02975 14.2656 4.85938C14.4354 4.68967 14.6688 4.59277 14.9102 4.59277H17.5928V1.91016C17.5928 1.66873 17.6896 1.43539 17.8594 1.26562L17.9258 1.20605C18.0875 1.07369 18.2897 1.0002 18.499 1Z" fill="#3C3B44"/>
<path d="M22.4033 6.80762C22.3872 6.81147 22.3708 6.81706 22.3545 6.82031L22.2236 6.83984C22.2843 6.83381 22.3444 6.82166 22.4033 6.80762Z" fill="#3C3B44"/>
</g>
<defs>
<clipPath id="clip0_6589_955">
<rect width="24" height="24" fill="white"/>
</clipPath>
</defs>
</svg>

<svg xmlns="http://www.w3.org/2000/svg" width="24" height="24" fill="none" viewBox="0 0 24 24"><g fill="currentColor" clip-path="url(#a)"><path d="M10.9 3.2q.707 0 1.39.097c.45.063.728.509.627.953s-.542.718-.994.662a8.25 8.25 0 1 0 7.165 7.165c-.056-.452.219-.893.663-.994s.889.177.952.628q.096.682.097 1.389c0 5.467-4.432 9.9-9.9 9.9C5.433 23 1 18.567 1 13.1s4.433-9.9 9.9-9.9"/><path d="M10.9 8.207c.36 0 .66.3.66.66v3.96l3.933 3.934a.664.664 0 0 1 0 .932.654.654 0 0 1-.933 0l-4.126-4.127a.7.7 0 0 1-.132-.19.65.65 0 0 1-.062-.276V8.867c0-.36.3-.66.66-.66M18.499 1a.91.91 0 0 1 .908.91v2.683h2.662l.211.02a.91.91 0 0 1 .72.888c0 .21-.074.412-.206.573l-.06.067a.92.92 0 0 1-.644.266h-2.683V9.09a.91.91 0 0 1-.908.91.907.907 0 0 1-.906-.91V6.407H14.91a.907.907 0 1 1 0-1.814h2.683V1.91c0-.241.097-.475.266-.644l.067-.06A.9.9 0 0 1 18.499 1m3.904 5.808c-.016.003-.032.01-.048.012l-.131.02q.09-.01.18-.032"/></g><defs><clipPath id="a"><path fill="currentColor" d="M0 0h24v24H0z"/></clipPath></defs></svg>
